src/icons/capsule@1x.svg

<svg xmlns="http://www.w3.org/2000/svg" viewBox="0 0 103.5041 141.6624"><defs><style>.cls-1{fill:#fff}</style></defs><g id="Layer_2" data-name="Layer 2"><g id="capsule"><path class="cls-1" d="M86.9689,3.4975h0a31.16,31.16,0,0,0-41.973,13.4161L3.6126,96.0373a31.16,31.16,0,0,0,12.9226,42.1275l0,0a30.6982,30.6982,0,0,0,23.6628,2.0168,32.2341,32.2341,0,0,0,18.31-15.4329l20.5544-39.3L99.8914,45.625A31.16,31.16,0,0,0,86.9689,3.4975Zm-33.94,115.003a25.5716,25.5716,0,0,1-10.3063,11.0234c-8.7729,5.124-18.2435,2.9531-22.2834,1.73C8.9578,125.17,4.9621,110.2141,11.5144,97.85Q20.7,80.0627,29.8855,62.2762A86.87,86.87,0,0,0,51.0868,77.6325a86.652,86.652,0,0,0,19.5337,7.22Zm7.23-100.9528A30.6351,30.6351,0,0,0,57.29,21.9712c-5.6372,10.0153-13.3951,24.7342-15.358,28.4649a9.7561,9.7561,0,0,1-3.6255-3.0712L52.44,19.4483A31.4576,31.4576,0,0,1,62.1763,9.6a30.4538,30.4538,0,0,1,5.3054-2.6749l2.8328-.85,2.5364,2.14A32.0808,32.0808,0,0,0,60.2581,17.5477Z"/></g></g></svg>

<?xml version="1.0" encoding="utf-8"?>
<!-- Generator: Adobe Illustrator 25.2.3, SVG Export Plug-In . SVG Version: 6.00 Build 0)  -->
<svg version="1.1" id="Layer_1" xmlns="http://www.w3.org/2000/svg" xmlns:xlink="http://www.w3.org/1999/xlink" x="0px" y="0px"
	 viewBox="0 0 103.5 141.7" style="enable-background:new 0 0 103.5 141.7;" xml:space="preserve">
<style type="text/css">
	.st0{fill:#231F20;}
</style>
<g id="Layer_2">
</g>
<g id="Layer_2_1_">
	<g id="capsule">
		<path class="st0" d="M87,3.5L87,3.5C71.7-4.4,52.9,1.6,45,16.9L3.6,96c-8.1,15.2-2.3,34.1,12.9,42.1l0,0c7.3,3.8,15.8,4.5,23.7,2
			c7.9-2.6,14.4-8.1,18.3-15.4l20.6-39.3l20.8-39.8C108,30.4,102.2,11.6,87,3.5z M53,118.5c-2.2,4.6-5.8,8.5-10.3,11
			c-8.8,5.1-18.2,3-22.3,1.7C9,125.2,5,110.2,11.5,97.8C17.6,86,23.8,74.1,29.9,62.3c6.3,6.2,13.4,11.3,21.2,15.4
			c6.2,3.2,12.8,5.6,19.5,7.2L53,118.5z M60.3,17.5c-1.1,1.4-2.1,2.9-3,4.4c-5.6,10-13.4,24.7-15.4,28.5c-1.4-0.7-2.7-1.8-3.6-3.1
			l14.1-27.9c2.5-4,5.8-7.3,9.7-9.8c1.7-1.1,3.5-2,5.3-2.7l2.8-0.8l2.5,2.1C67.9,10.2,63.6,13.4,60.3,17.5L60.3,17.5z"/>
	</g>
</g>
</svg>
